X:1
T:There Is a Paradise of Rest
T:Ira David Sankey
T:There Is a Paradise of Rest
T:Public Domain
T:Public Domain
T:Public Domain
C:Ira David Sankey
Z:Public Domain
%%score ( 1 2 ) ( 3 4 )
L:1/8
M:4/4
K:Eb
V:1 treble 
V:2 treble 
V:3 bass 
V:4 bass 
V:1
 (EG) | [EB]3 [E=A] [Ec][EB][EA][EB] | [EG]6 [EB]2 | [Ec]2 [Ee]2 [Ed]2 [Ec]2 | [EB]6 (EG) | %5
w: 1.~There *|a par- a- dise of rest|On yon-|der tran- quil shore,|Be- yond *|
w: 2.~There *|a ci- ty crowned with light,|Its joy|no tongue can tell;|For they *|
w: 3.~There *|a crown laid up on high|That Christ|the Lord will give|To those *|
w: 4.~Oh, *|be faith- ful un- to death,|Press on|the heaven- ly way,|That we *|
 [GB]3 [^F=A] [_Ac][GB][F=A][GB] | [EG]2 [EA]2 [EB]2 [Ec]2 | [EB]3 E [EG]2 [DF]2 | E6 || %9
w: sha- dow and the gloom of|night, Where toil and|tears are o’er. *||
w: en- ter shall be- hold the|King, And in His|pre- sence dwell. Meet|there,|
w: pa- tient- ly His com- ing|wait, And for His|glo- ry live. *||
w: en- ter through the gates of|life To realms of|end- less day. *||
"^Refrain" e>d | (z2 E>E [Ec])e d>c | (z2 E>E E2) E>[EF] | [EG]>[EG] [EG]>[EG] [Ec][EB] [EG]>E | %13
w: ||||
w: meet me|* * * there, At the|* * * ing of|ing bright and fair; Meet me there, oh,|
w: ||||
w: ||||
 [DF]6 G>B | (z2 E>E [Ee])d c>e | z2 E>E E2 E>[EF] | [EG]>[EG] [EG]>[EG] [GB][EG] [DF]>E | E6 |] %18
w: |||||
w: me there, In|* * * the land be-|* * * the riv-|me there. * * * * * *||
w: |||||
w: |||||
V:2
 E2 | x8 | x8 | x8 | x6 E2 | x8 | x8 | x3 E x4 | E6 || x2 | c4- x4 | B6 E3/2 x/ | x15/2 E/ | x8 | %14
w: is||||the||||||||||
w: is||||who|||me|oh,||dawn-|that morn-|meet||
w: is||||who||||||||||
w: then||||may||||||||||
 e4- x4 | B6 E3/2 x/ | x15/2 E/ | E6 |] %18
w: ||||
w: yond|er meet|||
w: ||||
w: ||||
V:3
 (G,B,) | [E,G,]3 [E,^F,] [E,A,][E,G,][E,F,][E,G,] | [E,B,]6 [E,G,]2 | %3
w: ~ *|~ ~ ~ ~ ~ ~|~ ~|
 A,2 [A,C]2 [A,,B,]2 [C,A,]2 | [E,G,]6 (G,B,) | [E,E]3 [E,E] [E,E][E,E][E,C][E,E] | %6
w: ~ ~ ~ ~|~ ~ *|~ ~ ~ ~ ~ ~|
 [E,B,]2 [C,A,]2 [B,,G,]2 [A,,F,]2 | [G,,B,]3 [C,G,] [B,,B,]2 [B,,A,]2 | [E,G,]6 || z2 | %10
w: ~ ~ ~ ~|~ ~ meet me|there,||
 z2 [A,,A,]>[A,,A,] [A,,A,] z3 | z2 [E,G,]>[E,G,] [E,G,]2 [E,G,]>[E,A,] | %12
w: meet me there|~ ~ ~ ~ ~|
 [E,B,]>[E,B,] [E,B,]>[E,B,] [E,A,][E,G,] [E,B,]>[G,,B,] | [B,,B,]6 z2 | %14
w: ~ ~ ~ ~ ~ ~ meet me|there,|
 z2 [E,G,]>[E,G,] [E,G,] z3 | z2 [E,G,]>[E,G,] [E,G,]2 [G,,B,]>[A,,C] | %16
w: meet me there||
 [B,,B,]>[B,,B,] [B,,B,]>[B,,B,] [B,,E][B,,B,] [B,,A,]>[E,G,] | [E,G,]6 |] %18
w: ||
V:4
 E,2 | x8 | x8 | A,2 x6 | x6 E,2 | x8 | x8 | x8 | x6 || x2 | x8 | x8 | x8 | x8 | x8 | x8 | x8 | %17
w: ~|||~|~|||||||||||||
 x6 |] %18
w: |

